www/assets/images/test_icons/flags/RS.svg

<svg fill="none" height="15" viewBox="0 0 21 15" width="21" xmlns="http://www.w3.org/2000/svg" xmlns:xlink="http://www.w3.org/1999/xlink"><mask id="a" height="15" maskUnits="userSpaceOnUse" width="21" x="0" y="0"><path d="m19 0h-17c-1.10457 0-2 .89543-2 2v11c0 1.1046.89543 2 2 2h17c1.1046 0 2-.8954 2-2v-11c0-1.10457-.8954-2-2-2z" fill="#fff"/></mask><g mask="url(#a)"><path d="m19 0h-17c-1.10457 0-2 .89543-2 2v11c0 1.1046.89543 2 2 2h17c1.1046 0 2-.8954 2-2v-11c0-1.10457-.8954-2-2-2z" fill="#0a4981"/><g clip-rule="evenodd" fill-rule="evenodd"><path d="m0 10h21v5h-21z" fill="#fff"/><path d="m0 0h21v5h-21zm8 10v-5h-4v5c0 1.105.895 2 2 2s2-.895 2-2z" fill="#cd3e44"/><path d="m5 5-1-1s1-1 2-1 2 1 2 1l-1 1z" fill="#ecbe34"/><path d="m5 6-1 1 2 1-1 2 1 2 1-2-1-2 2-1-1-1-1 1z" fill="#fff"/><path d="m5 6h-1v1zm2 0h1v1z" fill="#ecbe34"/><path d="m6 3-1 1 1 1 1-1z" fill="#a75835"/><path d="m6 8-2 1h4z" fill="#88605f"/></g><path d="m19 .5h-17c-.82843 0-1.5.67157-1.5 1.5v11c0 .8284.67157 1.5 1.5 1.5h17c.8284 0 1.5-.6716 1.5-1.5v-11c0-.82843-.6716-1.5-1.5-1.5z" stroke="#000" stroke-opacity=".1"/></g></svg>

<svg width="21" height="15" viewBox="0 0 21 15" fill="none" xmlns="http://www.w3.org/2000/svg">
<mask id="mask0_3_54" style="mask-type:alpha" maskUnits="userSpaceOnUse" x="0" y="0" width="21" height="15">
<path d="M19 0H2C0.89543 0 0 0.89543 0 2V13C0 14.1046 0.89543 15 2 15H19C20.1046 15 21 14.1046 21 13V2C21 0.89543 20.1046 0 19 0Z" fill="white"/>
</mask>
<g mask="url(#mask0_3_54)">
<path d="M19 0H2C0.89543 0 0 0.89543 0 2V13C0 14.1046 0.89543 15 2 15H19C20.1046 15 21 14.1046 21 13V2C21 0.89543 20.1046 0 19 0Z" fill="#0A4981"/>
<path fill-rule="evenodd" clip-rule="evenodd" d="M0 10H21V15H0V10Z" fill="white"/>
<path fill-rule="evenodd" clip-rule="evenodd" d="M0 0H21V5H0V0ZM8 10V5H4V10C4 11.105 4.895 12 6 12C7.105 12 8 11.105 8 10Z" fill="#CD3E44"/>
<path fill-rule="evenodd" clip-rule="evenodd" d="M5 5L4 4C4 4 5 3 6 3C7 3 8 4 8 4L7 5H5Z" fill="#ECBE34"/>
<path fill-rule="evenodd" clip-rule="evenodd" d="M5 6L4 7L6 8L5 10L6 12L7 10L6 8L8 7L7 6L6 7L5 6Z" fill="white"/>
<path fill-rule="evenodd" clip-rule="evenodd" d="M5 6H4V7L5 6ZM7 6H8V7L7 6Z" fill="#ECBE34"/>
<path fill-rule="evenodd" clip-rule="evenodd" d="M6 3L5 4L6 5L7 4L6 3Z" fill="#A75835"/>
<path fill-rule="evenodd" clip-rule="evenodd" d="M6 8L4 9H8L6 8Z" fill="#88605F"/>
<path d="M19 0.5H2C1.17157 0.5 0.5 1.17157 0.5 2V13C0.5 13.8284 1.17157 14.5 2 14.5H19C19.8284 14.5 20.5 13.8284 20.5 13V2C20.5 1.17157 19.8284 0.5 19 0.5Z" stroke="black" stroke-opacity="0.1"/>
</g>
</svg>
